flaticon/design/row.svg

<svg xmlns="http://www.w3.org/2000/svg" width="32" height="32" viewBox="0 0 24 24">
    <path d="M.765625 15.234375C.703125 15.097656.5625 15 .398438 15 .179688 15 0 15.179688 0 15.398438L0 16 .601562 16C.820312 16 1 15.820312 1 15.601562 1 15.4375.902344 15.296875.765625 15.234375zM.398438 12.578125C.621094 12.578125.800781 12.398438.800781 12.179688L.800781 11.820312C.800781 11.597656.621094 11.421875.398438 11.421875.179688 11.421875 0 11.597656 0 11.820312L0 12.179688C0 12.398438.179688 12.578125.398438 12.578125zM.398438 14.367188C.621094 14.367188.800781 14.191406.800781 13.96875L.800781 13.609375C.800781 13.390625.621094 13.210938.398438 13.210938.179688 13.210938 0 13.390625 0 13.609375L0 13.96875C0 14.191406.179688 14.367188.398438 14.367188zM.398438 10.789062C.621094 10.789062.800781 10.609375.800781 10.390625L.800781 10.03125C.800781 9.808594.621094 9.632812.398438 9.632812.179688 9.632812 0 9.808594 0 10.03125L0 10.390625C0 10.609375.179688 10.789062.398438 10.789062zM.601562 8L0 8 0 8.601562C0 8.820312.179688 9 .398438 9 .5625 9 .703125 8.902344.765625 8.765625.902344 8.703125 1 8.5625 1 8.398438 1 8.179688.820312 8 .601562 8zM14.125 8L13.738281 8C13.519531 8 13.339844 8.179688 13.339844 8.398438 13.339844 8.621094 13.519531 8.800781 13.738281 8.800781L14.125 8.800781C14.347656 8.800781 14.523438 8.621094 14.523438 8.398438 14.523438 8.179688 14.347656 8 14.125 8zM11.808594 8.800781L12.191406 8.800781C12.414062 8.800781 12.59375 8.621094 12.59375 8.398438 12.59375 8.179688 12.414062 8 12.191406 8L11.808594 8C11.585938 8 11.40625 8.179688 11.40625 8.398438 11.40625 8.621094 11.585938 8.800781 11.808594 8.800781zM10.261719 8L9.875 8C9.652344 8 9.472656 8.179688 9.472656 8.398438 9.472656 8.621094 9.652344 8.800781 9.875 8.800781L10.261719 8.800781C10.480469 8.800781 10.660156 8.621094 10.660156 8.398438 10.660156 8.179688 10.480469 8 10.261719 8zM2.144531 8.800781L2.53125 8.800781C2.753906 8.800781 2.933594 8.621094 2.933594 8.398438 2.933594 8.179688 2.753906 8 2.53125 8L2.144531 8C1.925781 8 1.746094 8.179688 1.746094 8.398438 1.746094 8.621094 1.925781 8.800781 2.144531 8.800781zM8.328125 8L7.941406 8C7.722656 8 7.542969 8.179688 7.542969 8.398438 7.542969 8.621094 7.722656 8.800781 7.941406 8.800781L8.328125 8.800781C8.550781 8.800781 8.730469 8.621094 8.730469 8.398438 8.730469 8.179688 8.550781 8 8.328125 8zM17.988281 8L17.605469 8C17.382812 8 17.203125 8.179688 17.203125 8.398438 17.203125 8.621094 17.382812 8.800781 17.605469 8.800781L17.988281 8.800781C18.210938 8.800781 18.390625 8.621094 18.390625 8.398438 18.390625 8.179688 18.210938 8 17.988281 8zM4.464844 8L4.078125 8C3.855469 8 3.675781 8.179688 3.675781 8.398438 3.675781 8.621094 3.855469 8.800781 4.078125 8.800781L4.464844 8.800781C4.6875 8.800781 4.863281 8.621094 4.863281 8.398438 4.863281 8.179688 4.6875 8 4.464844 8zM6.394531 8L6.011719 8C5.789062 8 5.609375 8.179688 5.609375 8.398438 5.609375 8.621094 5.789062 8.800781 6.011719 8.800781L6.394531 8.800781C6.617188 8.800781 6.796875 8.621094 6.796875 8.398438 6.796875 8.179688 6.617188 8 6.394531 8zM21.855469 8L21.46875 8C21.246094 8 21.066406 8.179688 21.066406 8.398438 21.066406 8.621094 21.246094 8.800781 21.46875 8.800781L21.855469 8.800781C22.074219 8.800781 22.253906 8.621094 22.253906 8.398438 22.253906 8.179688 22.074219 8 21.855469 8zM15.671875 8.800781L16.058594 8.800781C16.277344 8.800781 16.457031 8.621094 16.457031 8.398438 16.457031 8.179688 16.277344 8 16.058594 8L15.671875 8C15.449219 8 15.269531 8.179688 15.269531 8.398438 15.269531 8.621094 15.449219 8.800781 15.671875 8.800781zM19.535156 8.800781L19.921875 8.800781C20.144531 8.800781 20.320312 8.621094 20.320312 8.398438 20.320312 8.179688 20.144531 8 19.921875 8L19.535156 8C19.3125 8 19.136719 8.179688 19.136719 8.398438 19.136719 8.621094 19.3125 8.800781 19.535156 8.800781zM23.398438 8C23.179688 8 23 8.179688 23 8.398438 23 8.5625 23.097656 8.703125 23.234375 8.765625 23.296875 8.902344 23.4375 9 23.601562 9 23.820312 9 24 8.820312 24 8.601562L24 8zM23.601562 13.210938C23.378906 13.210938 23.199219 13.390625 23.199219 13.609375L23.199219 13.96875C23.199219 14.191406 23.378906 14.367188 23.601562 14.367188 23.820312 14.367188 24 14.191406 24 13.96875L24 13.609375C24 13.390625 23.820312 13.210938 23.601562 13.210938zM23.601562 9.632812C23.378906 9.632812 23.199219 9.808594 23.199219 10.03125L23.199219 10.390625C23.199219 10.609375 23.378906 10.789062 23.601562 10.789062 23.820312 10.789062 24 10.609375 24 10.390625L24 10.03125C24 9.808594 23.820312 9.632812 23.601562 9.632812zM23.601562 11.421875C23.378906 11.421875 23.199219 11.601562 23.199219 11.820312L23.199219 12.179688C23.199219 12.402344 23.378906 12.578125 23.601562 12.578125 23.820312 12.578125 24 12.402344 24 12.179688L24 11.820312C24 11.601562 23.820312 11.421875 23.601562 11.421875zM23.601562 15C23.4375 15 23.296875 15.097656 23.234375 15.234375 23.097656 15.296875 23 15.4375 23 15.601562 23 15.820312 23.179688 16 23.398438 16L24 16 24 15.398438C24 15.179688 23.820312 15 23.601562 15zM14.125 15.199219L13.738281 15.199219C13.519531 15.199219 13.339844 15.378906 13.339844 15.601562 13.339844 15.820312 13.519531 16 13.738281 16L14.125 16C14.347656 16 14.523438 15.820312 14.523438 15.601562 14.523438 15.378906 14.347656 15.199219 14.125 15.199219zM16.058594 15.199219L15.671875 15.199219C15.449219 15.199219 15.269531 15.378906 15.269531 15.601562 15.269531 15.820312 15.449219 16 15.671875 16L16.058594 16C16.277344 16 16.457031 15.820312 16.457031 15.601562 16.457031 15.378906 16.277344 15.199219 16.058594 15.199219zM17.988281 15.199219L17.605469 15.199219C17.382812 15.199219 17.203125 15.378906 17.203125 15.601562 17.203125 15.820312 17.382812 16 17.605469 16L17.988281 16C18.210938 16 18.390625 15.820312 18.390625 15.601562 18.390625 15.378906 18.210938 15.199219 17.988281 15.199219zM19.921875 15.199219L19.535156 15.199219C19.3125 15.199219 19.136719 15.378906 19.136719 15.601562 19.136719 15.820312 19.3125 16 19.535156 16L19.921875 16C20.144531 16 20.324219 15.820312 20.324219 15.601562 20.324219 15.378906 20.144531 15.199219 19.921875 15.199219zM21.855469 15.199219L21.46875 15.199219C21.246094 15.199219 21.066406 15.378906 21.066406 15.601562 21.066406 15.820312 21.246094 16 21.46875 16L21.855469 16C22.074219 16 22.253906 15.820312 22.253906 15.601562 22.253906 15.378906 22.074219 15.199219 21.855469 15.199219zM12.191406 15.199219L11.808594 15.199219C11.585938 15.199219 11.40625 15.378906 11.40625 15.601562 11.40625 15.820312 11.585938 16 11.808594 16L12.191406 16C12.414062 16 12.59375 15.820312 12.59375 15.601562 12.59375 15.378906 12.414062 15.199219 12.191406 15.199219zM4.464844 15.199219L4.078125 15.199219C3.855469 15.199219 3.679688 15.378906 3.679688 15.601562 3.679688 15.820312 3.855469 16 4.078125 16L4.464844 16C4.6875 16 4.863281 15.820312 4.863281 15.601562 4.863281 15.378906 4.6875 15.199219 4.464844 15.199219zM2.53125 15.199219L2.144531 15.199219C1.925781 15.199219 1.746094 15.378906 1.746094 15.601562 1.746094 15.820312 1.925781 16 2.144531 16L2.53125 16C2.753906 16 2.933594 15.820312 2.933594 15.601562 2.933594 15.378906 2.753906 15.199219 2.53125 15.199219zM10.261719 15.199219L9.875 15.199219C9.652344 15.199219 9.472656 15.378906 9.472656 15.601562 9.472656 15.820312 9.652344 16 9.875 16L10.261719 16C10.480469 16 10.660156 15.820312 10.660156 15.601562 10.660156 15.378906 10.480469 15.199219 10.261719 15.199219zM8.328125 15.199219L7.941406 15.199219C7.722656 15.199219 7.542969 15.378906 7.542969 15.601562 7.542969 15.820312 7.722656 16 7.941406 16L8.328125 16C8.550781 16 8.730469 15.820312 8.730469 15.601562 8.730469 15.378906 8.550781 15.199219 8.328125 15.199219zM6.394531 15.199219L6.011719 15.199219C5.789062 15.199219 5.609375 15.378906 5.609375 15.601562 5.609375 15.820312 5.789062 16 6.011719 16L6.394531 16C6.617188 16 6.796875 15.820312 6.796875 15.601562 6.796875 15.378906 6.617188 15.199219 6.394531 15.199219zM6.394531 15.199219"/>
</svg>

<svg xmlns="http://www.w3.org/2000/svg" width="32" height="32" viewBox="0 0 24 24">
    <path d="M.766 15.234a.4.4 0 0 0-.766.164V16h.602a.4.4 0 0 0 .164-.766zm0 0M.398 12.578c.223 0 .403-.18.403-.398v-.36a.398.398 0 0 0-.403-.398.398.398 0 0 0-.398.398v.36a.4.4 0 0 0 .398.398zm0 0M.398 14.367a.398.398 0 0 0 .403-.398v-.36a.401.401 0 0 0-.801 0v.36c0 .222.18.398.398.398zm0 0M.398 10.79c.223 0 .403-.18.403-.4v-.359a.398.398 0 0 0-.403-.398.398.398 0 0 0-.398.398v.36a.4.4 0 0 0 .398.398zm0 0M.602 8H0v.602a.4.4 0 0 0 .766.164A.4.4 0 0 0 .602 8zm0 0M14.125 8h-.387a.4.4 0 0 0 0 .8h.387c.223 0 .398-.179.398-.402A.398.398 0 0 0 14.125 8zm0 0M11.809 8.8h.382a.401.401 0 0 0 0-.8h-.382a.401.401 0 1 0 0 .8zm0 0M10.262 8h-.387a.401.401 0 1 0 0 .8h.387a.401.401 0 0 0 0-.8zm0 0M2.145 8.8h.386a.401.401 0 0 0 0-.8h-.386a.4.4 0 0 0 0 .8zm0 0M8.328 8h-.387a.4.4 0 0 0 0 .8h.387a.401.401 0 0 0 0-.8zm0 0M17.988 8h-.383a.401.401 0 1 0 0 .8h.383a.401.401 0 0 0 0-.8zm0 0M4.465 8h-.387a.401.401 0 1 0 0 .8h.387c.223 0 .398-.179.398-.402A.398.398 0 0 0 4.465 8zm0 0M6.395 8h-.383a.401.401 0 1 0 0 .8h.383a.401.401 0 0 0 0-.8zm0 0M21.855 8h-.386a.401.401 0 1 0 0 .8h.386a.401.401 0 0 0 0-.8zm0 0M15.672 8.8h.387a.401.401 0 0 0 0-.8h-.387a.401.401 0 1 0 0 .8zm0 0M19.535 8.8h.387c.223 0 .398-.179.398-.402A.398.398 0 0 0 19.922 8h-.387a.398.398 0 0 0-.398.398c0 .223.175.403.398.403zm0 0M23.398 8a.4.4 0 0 0-.164.766.4.4 0 0 0 .766-.164V8zm0 0M23.602 13.21a.401.401 0 0 0-.403.4v.359c0 .222.18.398.403.398A.398.398 0 0 0 24 13.97v-.36a.4.4 0 0 0-.398-.398zm0 0M23.602 9.633a.398.398 0 0 0-.403.398v.36a.401.401 0 0 0 .801 0v-.36a.398.398 0 0 0-.398-.398zm0 0M23.602 11.422a.401.401 0 0 0-.403.398v.36c0 .222.18.398.403.398A.398.398 0 0 0 24 12.18v-.36a.4.4 0 0 0-.398-.398zm0 0M23.602 15a.404.404 0 0 0-.368.234.4.4 0 0 0 .164.766H24v-.602a.4.4 0 0 0-.398-.398zm0 0M14.125 15.2h-.387a.401.401 0 0 0 0 .8h.387c.223 0 .398-.18.398-.398a.398.398 0 0 0-.398-.403zm0 0M16.059 15.2h-.387a.401.401 0 0 0 0 .8h.387a.4.4 0 0 0 0-.8zm0 0M17.988 15.2h-.383a.401.401 0 0 0 0 .8h.383a.401.401 0 1 0 0-.8zm0 0M19.922 15.2h-.387a.398.398 0 0 0-.398.402c0 .218.175.398.398.398h.387a.401.401 0 1 0 0-.8zm0 0M21.855 15.2h-.386a.401.401 0 0 0 0 .8h.386a.4.4 0 0 0 0-.8zm0 0M12.191 15.2h-.382a.401.401 0 0 0 0 .8h.382a.401.401 0 1 0 0-.8zm0 0M4.465 15.2h-.387a.398.398 0 0 0-.398.402c0 .218.175.398.398.398h.387c.223 0 .398-.18.398-.398a.398.398 0 0 0-.398-.403zm0 0M2.531 15.2h-.386a.401.401 0 0 0 0 .8h.386a.401.401 0 1 0 0-.8zm0 0M10.262 15.2h-.387a.401.401 0 0 0 0 .8h.387a.4.4 0 0 0 0-.8zm0 0M8.328 15.2h-.387a.401.401 0 0 0 0 .8h.387a.401.401 0 1 0 0-.8zm0 0M6.395 15.2h-.383a.401.401 0 0 0 0 .8h.383a.401.401 0 1 0 0-.8zm0 0"/>
</svg>
